src/assets-partners/no-name1.svg

<svg version="1.0" xmlns="http://www.w3.org/2000/svg" width="224" height="224" viewBox="0 0 700.000000 700.000000" preserveAspectRatio="xMidYMid meet">
 
<metadata>
Created by potrace 1.12, written by Peter Selinger 2001-2015
</metadata>
<g transform="translate(0.000000,700.000000) scale(0.100000,-0.100000)" fill="#000000" stroke="none">
<path d="M2149 5233 c0 -5 0 -786 0 -1738 l1 -1730 427 -3 c235 -1 431 2 435
6 8 8 10 2171 3 2542 -2 97 1 160 7 167 8 10 88 13 338 13 353 0 362 -1 519
-63 53 -21 151 -105 151 -129 0 -6 7 -19 15 -28 39 -43 68 -411 39 -492 -8
-22 -14 -51 -14 -63 0 -30 -48 -117 -86 -158 -41 -43 -137 -93 -205 -106 -30
-6 -76 -16 -103 -21 -27 -6 -96 -9 -153 -8 -57 1 -107 -3 -111 -8 -4 -5 -5
-178 -2 -384 l5 -375 95 0 c225 0 516 15 561 30 25 8 65 17 90 21 62 9 152 39
222 74 33 16 66 30 72 30 7 0 20 9 30 20 10 11 25 20 33 20 18 0 135 91 180
139 32 35 92 117 92 127 0 2 15 26 33 52 56 83 92 169 107 257 5 28 14 66 19
85 7 22 11 180 11 431 0 327 -3 404 -15 439 -8 23 -15 55 -15 71 0 29 -63 166
-131 284 -61 107 -200 230 -344 304 -42 22 -82 44 -89 49 -17 13 -96 40 -136
47 -19 3 -39 10 -45 15 -5 4 -39 13 -75 20 -36 6 -87 18 -114 26 -27 8 -70 14
-95 14 -25 0 -81 7 -124 15 -66 13 -206 15 -853 15 -426 0 -774 -3 -775 -7z
m2391 -2203 c0 -5 -5 -10 -11 -10 -5 0 -7 5 -4 10 3 6 8 10 11 10 2 0 4 -4 4
-10z"></path>
</g>
</svg>

<?xml version="1.0" standalone="no"?>
<!DOCTYPE svg PUBLIC "-//W3C//DTD SVG 1.0//EN" "http://www.w3.org/TR/2001/REC-SVG-20010904/DTD/svg10.dtd">
<svg xmlns="http://www.w3.org/2000/svg" xmlns:xlink="http://www.w3.org/1999/xlink" id="body_1" width="90" height="90">

<g transform="matrix(0.12857144 0 0 0.12857144 0 0)">
	<g transform="matrix(0.1 0 -0 -0.1 0 700)">
        <path d="M2149 5233C 2149 5228 2149 4447 2149 3495L2149 3495L2150 1765L2577 1762C 2812 1761 3008 1764 3012 1768C 3020 1776 3022 3939 3015 4310C 3013 4407 3016 4470 3022 4477C 3030 4487 3110 4490 3360 4490C 3713 4490 3722 4489 3879 4427C 3932 4406 4030 4322 4030 4298C 4030 4292 4037 4279 4045 4270C 4084 4227 4113 3859 4084 3778C 4076 3756 4070 3727 4070 3715C 4070 3685 4022 3598 3984 3557C 3943 3514 3847 3464 3779 3451C 3749 3445 3703 3435 3676 3430C 3649 3424 3580 3421 3523 3422C 3466 3423 3416 3419 3412 3414C 3408 3409 3407 3236 3410 3030L3410 3030L3415 2655L3510 2655C 3735 2655 4026 2670 4071 2685C 4096 2693 4136 2702 4161 2706C 4223 2715 4313 2745 4383 2780C 4416 2796 4449 2810 4455 2810C 4462 2810 4475 2819 4485 2830C 4495 2841 4510 2850 4518 2850C 4536 2850 4653 2941 4698 2989C 4730 3024 4790 3106 4790 3116C 4790 3118 4805 3142 4823 3168C 4879 3251 4915 3337 4930 3425C 4935 3453 4944 3491 4949 3510C 4956 3532 4960 3690 4960 3941C 4960 4268 4957 4345 4945 4380C 4937 4403 4930 4435 4930 4451C 4930 4480 4867 4617 4799 4735C 4738 4842 4599 4965 4455 5039C 4413 5061 4373 5083 4366 5088C 4349 5101 4270 5128 4230 5135C 4211 5138 4191 5145 4185 5150C 4180 5154 4146 5163 4110 5170C 4074 5176 4023 5188 3996 5196C 3969 5204 3926 5210 3901 5210C 3876 5210 3820 5217 3777 5225C 3711 5238 3571 5240 2924 5240C 2498 5240 2150 5237 2149 5233zM4540 3030C 4540 3025 4535 3020 4529 3020C 4524 3020 4522 3025 4525 3030C 4528 3036 4533 3040 4536 3040C 4538 3040 4540 3036 4540 3030z" stroke="none" fill="#000000" fill-rule="nonzero" />
	</g>
</g>
</svg>
